public/favicon-dark.svg

<?xml version="1.0" encoding="UTF-8" standalone="no"?>
<svg
   width="512"
   height="512"
   viewBox="0 0 512 512"
   version="1.1"
   id="svg1"
   xmlns="http://www.w3.org/2000/svg"
   xmlns:svg="http://www.w3.org/2000/svg">
  <defs
     id="defs1" />
  <path
     d="M 233.195,1.103 C 156.329,7.943 86.184,49.901 42.784,115 32.753,130.046 21.218,152.82 15.18,169.5 3.601,201.488 -1.634,238.793 0.761,272.25 c 2.579,36.03 10.248,64.692 25.753,96.25 13.328,27.129 27.263,46.443 49.421,68.5 44.97,44.764 99.993,69.702 163.815,74.245 33.47,2.383 70.701,-2.841 102.75,-14.416 23.345,-8.432 50.634,-23.563 71.385,-39.582 11.082,-8.554 34.808,-32.28 43.362,-43.362 16.019,-20.751 31.15,-48.04 39.582,-71.385 6.978,-19.322 12.648,-45.215 13.856,-63.286 2.23846,-29.92084 0.7188,-34.10517 -0.004,-46.497 C 507.673,187.755 487.54,137.09 457.199,98.128 448.29,86.688 431.719,69.595 420,59.758 399.417,42.481 369.04,24.908 343.5,15.504 309.926,3.142 269.539,-2.131 233.195,1.103 m 2.81,50.987 C 175.292,57.931 118.896,92.169 84.778,143.899 50.604,195.714 42.054,260.567 61.575,319.89 c 17.27,52.484 55.271,96.008 104.925,120.176 68.921,33.545 150.726,25.786 212,-20.109 C 449.017,367.139 477.906,275.623 450.425,192.11 420.517,101.22 331.249,42.926 236.005,52.09 M 295.5,165.936 c -48.4,20.803 -88.776,38.441 -89.724,39.194 -1.268,1.007 -50.384,114.046 -76.269,175.532 l -1.332,3.163 3.163,-1.332 c 43.549,-18.334 174.489,-74.936 175.354,-75.801 0.656,-0.656 17.68,-39.667 37.831,-86.692 41.343,-96.478 39.444,-92.019 39.176,-91.944 -0.109,0.031 -39.799,17.077 -88.199,37.88"
     stroke="none"
     fill="#06a7f2"
     fill-rule="evenodd"
     id="path1" />
</svg>

<svg xmlns="http://www.w3.org/2000/svg" width="512" height="512" viewBox="0 0 512 512" version="1.1">
	<path d="M 233.195 1.103 C 156.329 7.943, 86.184 49.901, 42.784 115 C 32.753 130.046, 21.218 152.820, 15.180 169.500 C 3.601 201.488, -1.634 238.793, 0.761 272.250 C 3.340 308.280, 11.009 336.942, 26.514 368.500 C 39.842 395.629, 53.777 414.943, 75.935 437 C 120.905 481.764, 175.928 506.702, 239.750 511.245 C 273.220 513.628, 310.451 508.404, 342.500 496.829 C 365.845 488.397, 393.134 473.266, 413.885 457.247 C 424.967 448.693, 448.693 424.967, 457.247 413.885 C 473.266 393.134, 488.397 365.845, 496.829 342.500 C 503.807 323.178, 509.477 297.285, 510.685 279.214 C 511.027 274.107, 511.687 269.693, 512.153 269.405 C 512.619 269.117, 513 262.582, 513 254.882 C 513 247.182, 512.617 241.119, 512.149 241.408 C 511.680 241.698, 511.020 237.787, 510.681 232.717 C 507.673 187.755, 487.540 137.090, 457.199 98.128 C 448.290 86.688, 431.719 69.595, 420 59.758 C 399.417 42.481, 369.040 24.908, 343.500 15.504 C 309.926 3.142, 269.539 -2.131, 233.195 1.103 M 236.005 52.090 C 175.292 57.931, 118.896 92.169, 84.778 143.899 C 50.604 195.714, 42.054 260.567, 61.575 319.890 C 78.845 372.374, 116.846 415.898, 166.500 440.066 C 235.421 473.611, 317.226 465.852, 378.500 419.957 C 449.017 367.139, 477.906 275.623, 450.425 192.110 C 420.517 101.220, 331.249 42.926, 236.005 52.090 M 295.500 165.936 C 247.100 186.739, 206.724 204.377, 205.776 205.130 C 204.508 206.137, 155.392 319.176, 129.507 380.662 L 128.175 383.825 131.338 382.493 C 174.887 364.159, 305.827 307.557, 306.692 306.692 C 307.348 306.036, 324.372 267.025, 344.523 220 C 385.866 123.522, 383.967 127.981, 383.699 128.056 C 383.590 128.087, 343.900 145.133, 295.500 165.936" stroke="none" fill="#06a7f2" fill-rule="evenodd"/>
</svg>
